!!!!SEGMENT: pl-cz--ii-116--001-005_jeric--partita-b-rondo.krn
!!!cenid: 18xx:2473
!!!COM: Jeric
!!!COM-rismID: pe30098283
!!!CDT: ~1800-~1899
!!!CNT:
!!!OPR: Partita B
!!!OTL: Rondo
!!!OMV: 005
!!!PDT: 1801
!!!AGN: Secular; Partita
!!!SMS-siglum: PL-CZ
!!!SMS-shelfmark: II-116
!!!SMS-shelfwork: 001-005 M
!!!SMS-variant:
!!!SMS-altvar:
!!!NIFC-rismSourceID: 300000527
!!!NIFC-rismChildID: 300000527
!!!NIFC-islandoraID: pl-cz:3221
!!!URL-pdf-islandora: https://repozytorium.nifc.pl/islandora/object/pl-cz%3A3221/datastream/PDF/view
!!!URL-scan: https://polish.musicsources.pl/pl/lokalizacje/galeria/rekopisy/691 @EN{Scan on Polish Music Sources Website} @PL{Skany w portalu Dziedzictwo Muzyki Polskiej w otwartym dostępie}
!!!IIIF:
!!!ONB-nifc: UWAGA: części Partity: 1. Allegro, 2. Menuetto, 3. Andante, 4. Menuetto, 5. Rondo. W Particie 2 Menuety (002 i 004). Kontynuacja partii Fagotu na skanie 0008, str. 8
!!!AIN: 2 clars 2 empty 1 fagot
!!!key:
**kern	**dynam	**kern	**dynam	**kern	**dynam	**kern	**dynam	**kern	**dynam
*part5	*part5	*part4	*part4	*part3	*part3	*part2	*part2	*part1	*part1
*staff5	*	*staff4	*	*staff3	*	*staff2	*	*staff1	*
*Iempty	*	*Iempty	*	*Ifagot	*	*Iclars	*	*Iclars	*
*I"Cornu Secundo. in B.	*	*I"Cornu Primu in B.	*	*I"Fagotto.	*	*I"Clarinetto Secundo. in B.	*	*I"Clarinetto. Primo in B.	*
*I'cor 2 in B	*	*I'Cor 1 in B	*	*I'fag	*	*I'cl 2	*	*I'cl 1	*
*clefG2	*	*clefG2	*	*clefF4	*	*clefG2	*	*clefG2	*
*ITrd1c2	*	*ITrd1c2	*	*	*	*ITrd1c2	*	*ITrd1c2	*
*k[b-e-]	*	*k[b-e-]	*	*k[b-e-]	*	*k[b-e-]	*	*k[b-e-]	*
*B-:	*	*B-:	*	*B-:	*	*B-:	*	*B-:	*
*M2/2	*	*M2/2	*	*M2/2	*	*M2/2	*	*M2/2	*
*met(c|)	*	*met(c|)	*	*met(c|)	*	*met(c|)	*	*met(c|)	*
*>[A,A1,A,A2,B,C]	*	*	*	*	*	*	*	*	*
=1	=1	=1	=1	=1	=1	=1	=1	=1	=1
*>A	*	*	*	*	*	*	*	*	*
!	!LO:DY:rj:t=p&colon;	!LO:TX:a:t=8.	!	!	!LO:DY:rj:a:t=p&colon;	!LO:TX:a:t=8.	!	!	!LO:DY:rj:a:t=pia&colon;
4B-/	p	00r	.	(8d\L	p	00r	.	(8ff\L	p
.	.	.	.	8e-\	.	.	.	8gg\	.
4r	.	.	.	8d\)	.	.	.	8ff\	.
.	.	.	.	8c\J	.	.	.	8ee-\J)	.
2r	.	.	.	4B-\	.	.	.	4dd\	.
.	.	.	.	4B-\	.	.	.	4dd\	.
=2	=2	=2	=2	=2	=2	=2	=2	=2	=2
4r	.	.	.	4B-\	.	.	.	4dd\	.
4f/	.	.	.	4c\	.	.	.	4ee-\	.
*	*	*	*	*2\right	*	*	*	*2\right	*
4d/	.	.	.	2d\	.	.	.	2ff\	.
4B-/	.	.	.	.	.	.	.	.	.
=3	=3	=3	=3	=3	=3	=3	=3	=3	=3
4F/	.	.	.	8c\L	.	.	.	(8ee-\L	.
.	.	.	.	8d\	.	.	.	8ff\	.
4r	.	.	.	8c\	.	.	.	8ee-\	.
.	.	.	.	8B-\J	.	.	.	8dd\J)	.
2r	.	.	.	4A\	.	.	.	4cc\	.
.	.	.	.	4A\	.	.	.	4cc\	.
=4	=4	=4	=4	=4	=4	=4	=4	=4	=4
4r	.	.	.	4A\	.	.	.	4cc\	.
4F/	.	.	.	4B-\	.	.	.	4dd\	.
4A/	.	.	.	2c\	.	.	.	2ee-\	.
4F/	.	.	.	.	.	.	.	.	.
=5	=5	=5	=5	=5	=5	=5	=5	=5	=5
4B-/	.	00r	.	4.B-\	.	00r	.	4.dd\	.
4r	.	.	.	.	.	.	.	.	.
.	.	.	.	16c\LL	.	.	.	(16ee-\LL	.
.	.	.	.	16B-\JJ	.	.	.	16dd\JJ)	.
2r	.	.	.	4A\	.	.	.	4cc\	.
.	.	.	.	4B-\	.	.	.	4dd\	.
!	!	!	!	!	!	!	!	!LO:LB:g=original	!
=6	=6	=6	=6	=6	=6	=6	=6	=6	=6
4F/	.	.	.	4.c\	.	.	.	4.ee-\	.
4r	.	.	.	.	.	.	.	.	.
.	.	.	.	16d\LL	.	.	.	(16ff\LL	.
.	.	.	.	16c\JJ	.	.	.	16ee-\JJ)	.
!	!	!	!	!LO:LB:g=original	!	!	!	!	!
2r	.	.	.	4B-\	.	.	.	4dd\	.
.	.	.	.	4c\	.	.	.	4ee-\	.
=7	=7	=7	=7	=7	=7	=7	=7	=7	=7
4B-/	.	.	.	4d\	.	.	.	4ff\	.
4BB-/	.	.	.	4d\	.	.	.	4ff\	.
4B-/	.	.	.	8e-\L	.	.	.	8gg\L	.
.	.	.	.	8d\	.	.	.	8ff\	.
4BB-/	.	.	.	8c\	.	.	.	8ee-\	.
.	.	.	.	8B-\J	.	.	.	8dd\J	.
!LO:LB:g=original	!	!	!	!	!	!	!	!	!
=8	=8	=8	=8	=8	=8	=8	=8	=8	=8
4F/	.	.	.	(8A\L	.	.	.	8cc\L	.
.	.	.	.	8G\	.	.	.	8b-\	.
4f/	.	.	.	8A\)	.	.	.	8cc\	.
.	.	.	.	8B-\J	.	.	.	8dd\J	.
4F/	.	.	.	4A\	.	.	.	4cc\	.
4r	.	.	.	4r	.	.	.	4f/	.
=9	=9	=9	=9	=9	=9	=9	=9	=9	=9
!	!	!	!	!	!LO:DY:rj	!	!LO:DY:rj:t=fu	!	!LO:DY:rj:t=fu
1d/	.	1b-\	.	2BB-/	f	(8dd\L	f	(8ff\L	f
.	.	.	.	.	.	8ee-\	.	8gg\	.
.	.	.	.	.	.	8dd\	.	8ff\	.
.	.	.	.	.	.	8cc\J)	.	8ee-\J)	.
.	.	.	.	2r	.	4b-\	.	4dd\	.
.	.	.	.	.	.	4b-\	.	4dd\	.
=10	=10	=10	=10	=10	=10	=10	=10	=10	=10
4r	.	4r	.	4B-\	.	4b-\	.	4dd\	.
4d/	.	4b-\	.	4F\	.	4cc\	.	4ee-\	.
*	*	*	*	*	*	*2\right	*	*	*
4d/	.	4b-\	.	4D\	.	2dd\	.	4ff\	.
4d/	.	4b-\	.	4BB-/	.	.	.	16gg\LL	.
.	.	.	.	.	.	.	.	(16ff\	.
.	.	.	.	.	.	.	.	16ee-\	.
.	.	.	.	.	.	.	.	16dd\JJ)	.
=11	=11	=11	=11	=11	=11	=11	=11	=11	=11
1f/	.	1cc\	.	2FF/	.	(8cc\L	.	8ee-\L	.
.	.	.	.	.	.	8dd\	.	8ff\	.
.	.	.	.	.	.	8cc\)	.	8ee-\	.
.	.	.	.	.	.	8b-\J	.	8dd\J	.
.	.	.	.	2r	.	4a\	.	4cc\	.
.	.	.	.	.	.	4a\	.	4cc\	.
=12	=12	=12	=12	=12	=12	=12	=12	=12	=12
4r	.	4r	.	4F\	.	4a\	.	4cc\	.
4f/	.	4cc\	.	4C/	.	4b-\	.	4dd\	.
!	!	!	!	!	!	!	!	!LO:LB:g=original	!
4f/	.	4cc\	.	4AA/	.	2cc\	.	4ee-\	.
4f/	.	4cc\	.	4FF/	.	.	.	16ff\LL	.
.	.	.	.	.	.	.	.	(16ee-\	.
.	.	.	.	.	.	.	.	16dd\	.
.	.	.	.	.	.	.	.	16cc\JJ)	.
=13	=13	=13	=13	=13	=13	=13	=13	=13	=13
*	*	*2\right	*	*	*	*	*	*	*
2d/	.	2b-\	.	4BB-/	.	(4.b-\	.	4.dd\	.
.	.	.	.	4B-\	.	.	.	.	.
.	.	.	.	.	.	16cc\LL	.	16ee-\LL	.
.	.	.	.	.	.	16b-\JJ)	.	16dd\JJ	.
2r	.	2r	.	4r	.	4a\	.	4cc\	.
.	.	.	.	4r	.	4b-\	.	4dd\	.
!	!	!	!	!	!	!LO:LB:g=original	!	!	!
=14	=14	=14	=14	=14	=14	=14	=14	=14	=14
2f/	.	2cc\	.	4FF/	.	4.cc\	.	4.ee-\	.
.	.	.	.	4F\	.	.	.	.	.
.	.	.	.	.	.	16dd\LL	.	16ff\LL	.
.	.	.	.	.	.	16cc\JJ	.	16ee-\JJ	.
2r	.	2r	.	4r	.	4b-\	.	4dd\	.
.	.	.	.	4r	.	4cc\	.	4ee-\	.
!	!	!	!	!LO:LB:g=original	!	!	!	!	!
=15	=15	=15	=15	=15	=15	=15	=15	=15	=15
4b-\	.	4dd\	.	4BB-/	.	8dd\L	.	8ff\L	.
.	.	.	.	.	.	8b-\J	.	(8dd\	.
4f\	.	4cc\	.	4E-\	.	8g/L	.	8ee-\	.
.	.	.	.	.	.	8e-/J	.	8cc\J)	.
!	!	!LO:LB:g=original	!	!	!	!	!	!	!
4d\	.	4b-\	.	4F\	.	4d/	.	4b-\	.
4f\	.	4cc\	.	4FF/	.	4e-/	.	4a\	.
=16	=16	=16	=16	=16	=16	=16	=16	=16	=16
!LO:TX:t=1.	!	!LO:TX:t=1.	!	!LO:TX:t=1.	!	!LO:TX:t=1.	!	!LO:TX:t=1.	!
*>A1	*	*	*	*	*	*	*	*	*
4d/	.	4b-\	.	8BB-\L	.	4d/	.	(8b-\L	.
.	.	.	.	8D\	.	.	.	8f\	.
4r	.	4r	.	8E-\	.	4r	.	8g\	.
.	.	.	.	8F\J	.	.	.	8a\J)	.
2r	.	2r	.	8G\L	.	2r	.	8b-\L	.
.	.	.	.	8A\	.	.	.	8cc\	.
.	.	.	.	8B-\	.	.	.	8dd\	.
.	.	.	.	8c\J	.	.	.	8ee-\J	.
!LO:LB:g=original	!	!	!	!	!	!	!	!	!
=17:|!	=17:|!	=17:|!	=17:|!	=17:|!	=17:|!	=17:|!	=17:|!	=17:|!	=17:|!
!LO:TX:t=2.	!	!LO:TX:t=2.	!	!LO:TX:t=2.	!	!LO:TX:t=2.	!	!LO:TX:t=2.	!
*>A2	*	*	*	*	*	*	*	*	*
2f/	.	2cc\	.	4B-\	.	2e-/	.	2a\	.
.	.	.	.	4F\	.	.	.	.	.
4d/	.	4b-\	.	4BB-/	.	4d/	.	4b-\	.
!	!	!	!	!	!	!	!	!LO:TX:b:t=Volti.	!
!	!	!	!	!	!	!	!	!LO:LB:g=original	!
=18!|:	=18!|:	=18!|:	=18!|:	=18!|:	=18!|:	=18!|:	=18!|:	=18!|:	=18!|:
*>B	*	*	*	*	*	*	*	*	*
!	!	!LO:TX:a:t=2.	!	!	!LO:DY:rj:t=p&colon;	!LO:TX:a:t=2.	!	!	!LO:DY:rj:t=p&colon;
4f/	.	0r	.	8A\L	p	0r	.	8c/L	p
.	.	.	.	8G\	.	.	.	8B-/	.
4F/	.	.	.	8F\	.	.	.	8A/	.
.	.	.	.	8G\J	.	.	.	8B-/J	.
4f/	.	.	.	8A\L	.	.	.	8c/L	.
.	.	.	.	8B-\	.	.	.	8d/	.
4r	.	.	.	8c\	.	.	.	8e-/	.
.	.	.	.	8A\J	.	.	.	8c/J	.
=19	=19	=19	=19	=19	=19	=19	=19	=19	=19
4r	.	.	.	4B-\	.	.	.	8d/L	.
.	.	.	.	.	.	.	.	8B-/	.
4B-/	.	.	.	8d\L	.	.	.	8f/	.
.	.	.	.	8B-\J	.	.	.	8d/J	.
4f/	.	.	.	4B-\	.	.	.	4d/	.
4r	.	.	.	4A\	.	.	.	4c/	.
=20	=20	=20	=20	=20	=20	=20	=20	=20	=20
!	!	!	!	!	!	!	!LO:DY:rj:t=p&colon;	!	!LO:DY:rj:t=fu
2F/	.	2f/	.	8A\L	.	8c/L	p	8cc\L	f
.	.	.	.	8G\	.	8B-/	.	8b-\	.
.	.	.	.	8F\	.	8A/	.	8a\	.
.	.	.	.	8G\J	.	8B-/J	.	8b-\J	.
4r	.	4r	.	8A\L	.	8c/L	.	8cc\L	.
.	.	.	.	8B-\	.	8d/	.	8dd\	.
4F/	.	4f/	.	8c\	.	8e-/	.	8ee-\	.
.	.	.	.	8A\J	.	8c/J	.	8cc\J	.
=21	=21	=21	=21	=21	=21	=21	=21	=21	=21
4B-/	.	4b-\	.	8B-\L	.	8d/L	.	8dd\L	.
.	.	.	.	8d\	.	8f/	.	8ff\	.
4r	.	4r	.	8c\	.	8e-/	.	8ee-\	.
.	.	.	.	8B-\J	.	8d/J	.	8dd\J	.
!	!	!	!	!LO:LB:g=original	!	!	!	!	!
4d/	.	4b-\	.	4B-\	.	4d/	.	4dd\	.
4f/	.	4cc\	.	4A\	.	4c/	.	4cc\	.
!	!	!	!	!	!	!LO:LB:g=original	!	!	!
=22	=22	=22	=22	=22	=22	=22	=22	=22	=22
!	!	!	!LO:DY:rj:t=fu	!	!LO:DY:rj	!	!LO:DY:rj:t=fu	!	!LO:DY:rj:t=fu
[>1d/	.	1b-\	f	2BB-/	f	8dd\L	f	(8ff\L	f
.	.	.	.	.	.	8ee-\	.	8gg\	.
.	.	.	.	.	.	8dd\	.	8ff\)	.
.	.	.	.	.	.	8cc\J	.	8ee-\J	.
.	.	.	.	2r	.	4b-\	.	4dd\	.
.	.	.	.	.	.	4b-\	.	4dd\	.
=23	=23	=23	=23	=23	=23	=23	=23	=23	=23
1d/]	.	1b-\	.	4B-\	.	4b-\	.	4dd\	.
.	.	.	.	4F\	.	4cc\	.	4ee-\	.
.	.	.	.	4D\	.	2dd\	.	2ff\	.
.	.	.	.	4BB-/	.	.	.	.	.
!	!	!	!	!	!	!	!	!LO:LB:g=original	!
=24	=24	=24	=24	=24	=24	=24	=24	=24	=24
[>1f/	.	1cc\	.	2FF/	.	(8cc\L	.	8ee-\L	.
.	.	.	.	.	.	8dd\	.	8ff\	.
.	.	.	.	.	.	8cc\	.	8ee-\	.
.	.	.	.	.	.	8b-\J)	.	8dd\J	.
.	.	.	.	4r	.	4a\	.	4cc\	.
.	.	.	.	4r	.	4a\	.	4cc\	.
=25	=25	=25	=25	=25	=25	=25	=25	=25	=25
1f/]	.	1cc\	.	4F\	.	4a\	.	4cc\	.
.	.	.	.	4C/	.	4b-\	.	4dd\	.
.	.	.	.	4AA/	.	2cc\	.	2ee-\	.
.	.	.	.	4FF/	.	.	.	.	.
=26	=26	=26	=26	=26	=26	=26	=26	=26	=26
4r	.	4r	.	4BB-/	.	(4.b-\	.	4.dd\	.
8d/L	.	8b-\L	.	4B-\	.	.	.	.	.
8d/J	.	8b-\J	.	.	.	16cc\LL)	.	(16ee-\LL	.
.	.	.	.	.	.	16b-\JJ	.	16dd\JJ)	.
!	!	!LO:LB:g=original	!	!	!	!	!	!	!
4d/	.	4b-\	.	4r	.	4a\	.	4cc\	.
4r	.	4r	.	4r	.	4b-\	.	4dd\	.
!LO:LB:g=original	!	!	!	!	!	!	!	!	!
=27	=27	=27	=27	=27	=27	=27	=27	=27	=27
4r	.	4r	.	4FF/	.	4.cc\	.	(4.ee-\	.
8f/L	.	8cc\L	.	4F\	.	.	.	.	.
8f/J	.	8cc\J	.	.	.	(16dd\LL	.	16ff\LL	.
.	.	.	.	.	.	16cc\JJ)	.	16ee-\JJ)	.
!	!	!	!	!LO:N:vis=4	!	!	!	!	!
4f/	.	4cc\	.	2r	.	4b-\	.	4dd\	.
4r	.	4r	.	.	.	4cc\	.	4ee-\	.
=28	=28	=28	=28	=28	=28	=28	=28	=28	=28
2r	.	2r	.	4B-\	.	8dd\L	.	(8ff\L	.
.	.	.	.	.	.	8b-\J	.	8dd\	.
!	!	!	!	!	!	!LO:LB:g=original	!	!	!
.	.	.	.	4E-\	.	8g/L	.	8ee-\	.
.	.	.	.	.	.	8e-/J	.	8cc\J)	.
4d/	.	4b-\	.	4F\	.	4d/	.	(4b-\	.
4f/	.	4cc\	.	4FF/	.	4e-/	.	4a\)	.
=29	=29	=29	=29	=29	=29	=29	=29	=29	=29
2f/	.	2cc\	.	4BB-/	.	(2e-/	.	[2b-\	.
.	.	.	.	4B-\	.	.	.	.	.
4d/	.	4b-\	.	4BB-/	.	4d/)	.	4b-\]	.
4r	.	4r	.	4r	.	4r	.	4ryy	.
!	!	!LO:LB:g=original	!	!LO:LB:g=original	!	!	!	!	!
=30:|!	=30:|!	=30:|!	=30:|!	=30:|!	=30:|!	=30:|!	=30:|!	=30:|!	=30:|!
*>C	*	*	*	*	*	*	*	*	*
!LO:TX:a:t=Coda.	!LO:DY:rj:t=fu	!LO:TX:a:t=Coda	!LO:DY:rj:t=fu	!LO:TX:a:t=Coda.	!LO:DY:rj:a:t=fu	!LO:TX:rj:a:t=Coda.	!LO:DY:a:t=fu	!LO:TX:a:t=Coda.	!LO:DY:rj:a:t=forte.
1B-/	f	1b-\	f	1E-\	f	1G/	f	8gg\L	f
.	.	.	.	.	.	.	.	8ee-\	.
.	.	.	.	.	.	.	.	8b-\	.
.	.	.	.	.	.	.	.	8ee-\J	.
.	.	.	.	.	.	.	.	8gg\L	.
.	.	.	.	.	.	.	.	8ee-\	.
.	.	.	.	.	.	.	.	8bb-\	.
.	.	.	.	.	.	.	.	8ee-\J	.
=31	=31	=31	=31	=31	=31	=31	=31	=31	=31
1B-/	.	1b-\	.	1D\	.	1F/	.	8ff\L	.
.	.	.	.	.	.	.	.	8dd\	.
.	.	.	.	.	.	.	.	8b-\	.
.	.	.	.	.	.	.	.	8dd\J	.
.	.	.	.	.	.	.	.	8ff\L	.
.	.	.	.	.	.	.	.	8dd\	.
.	.	.	.	.	.	.	.	8bb-\	.
.	.	.	.	.	.	.	.	8ff\J	.
=32	=32	=32	=32	=32	=32	=32	=32	=32	=32
!	!LO:DY:rj:t=p&colon;	!	!LO:DY:t=p&colon;	!	!LO:DY:a:t=p&colon;	!	!LO:DY:rj	!	!LO:DY:rj:t=p&colon;
1B-/	p	1b-\	p	1E-\	p	1G/	p	8gg\L	p
.	.	.	.	.	.	.	.	8ee-\	.
.	.	.	.	.	.	.	.	8b-\	.
.	.	.	.	.	.	.	.	8ee-\J	.
.	.	.	.	.	.	.	.	8gg\L	.
.	.	.	.	.	.	.	.	8ee-\	.
.	.	.	.	.	.	.	.	8bb-\	.
.	.	.	.	.	.	.	.	8gg\J	.
=33	=33	=33	=33	=33	=33	=33	=33	=33	=33
1B-/	.	1b-\	.	1D\	.	1F/	.	8ff\L	.
.	.	.	.	.	.	.	.	8dd\	.
.	.	.	.	.	.	.	.	8b-\	.
.	.	.	.	.	.	.	.	8dd\J	.
.	.	.	.	.	.	.	.	8ff\L	.
.	.	.	.	.	.	.	.	8dd\	.
.	.	.	.	.	.	.	.	8bb-\	.
!	!	!	!	!	!	!	!	!LO:TX:a:t=g	!
.	.	.	.	.	.	.	.	8ff\J	.
=34	=34	=34	=34	=34	=34	=34	=34	=34	=34
*2\right	*	*	*	*	*	*	*	*	*
2cc^<\	.	2cc\	<	2GG/	.	2B-/	<	2eeX\	<
2f^</	.	2cc\	[	2AAn/	.	2c/	[[	2ee-\	[[
!LO:LB:g=original	!	!	!	!	!	!	!	!	!
=35	=35	=35	=35	=35	=35	=35	=35	=35	=35
!	!LO:DY:rj	!	!LO:DY:rj:t=fu	!	!	!	!	!	!LO:DY:rj:t=fu
4d/	f	4b-\	f	4BB-/	.	4d/	.	4dd\	f
!	!	!	!	!	!LO:DY:rj	!	!	!	!
8.B-/L	.	8.b-\L	.	8.D\L	f	8.f/L	.	8.bb-\L	.
16B-/Jk	.	16b-\Jk	.	16D\Jk	.	16f/Jk	.	16bb-\Jk	.
!	!	!	!	!	!	!	!	!LO:LB:g=original	!
8.B-/L	.	8.b-\L	.	8.E-\L	.	8.g\L	.	8.gg\L	.
16B-/Jk	.	16b-\Jk	.	16E-\Jk	.	16g\Jk	.	16gg\Jk	.
8.B-/L	.	8.b-\L	.	8.G\L	.	8.g\L	.	8.ee-\L	.
16B-/Jk	.	16b-\Jk	.	16G\Jk	.	16g\Jk	.	16ee-\Jk	.
!	!	!LO:LB:g=original	!	!	!	!	!	!	!
=36	=36	=36	=36	=36	=36	=36	=36	=36	=36
!	!	!	!	!	!	!	!	!	!LO:DY:rj:t=p.
4B-/	.	4b-\	.	4F\	.	4f/	.	(8dd\L	p
.	.	.	.	.	.	.	.	8ee-\	.
4r	.	4r	.	4r	.	4r	.	8eeX\	.
.	.	.	.	.	.	.	.	8ff\J)	.
2r	.	2r	.	2r	.	2r	.	(8dd\L	.
.	.	.	.	.	.	.	.	8ee-\)	.
.	.	.	.	.	.	.	.	8eeX\	.
.	.	.	.	.	.	.	.	8ff\J	.
=37	=37	=37	=37	=37	=37	=37	=37	=37	=37
2r	.	2r	.	2r	.	2r	.	8dd\L	.
.	.	.	.	.	.	.	.	8ee-\	.
.	.	.	.	.	.	.	.	8eeX\	.
.	.	.	.	.	.	.	.	8ff\J	.
!	!LO:DY:rj:t=p&colon;	!LO:TX:a:t=d	!LO:DY:t=p&colon;	!	!LO:DY:rj:t=p&colon;	!	!LO:DY:t=p&colon;	!	!
2f/	p	2cc\	p	2FF/	p	(2e-/	p	8ff\L	.
.	.	.	.	.	.	.	.	8ee-\	.
.	.	.	.	.	.	.	.	8cc\	.
.	.	.	.	.	.	.	.	8a\J	.
!	!	!	!	!LO:LB:g=original	!	!	!	!	!
=38	=38	=38	=38	=38	=38	=38	=38	=38	=38
!	!	!	!	!	!	!	!	!LO:TX:t=P:problem=tt.38-39 zapisane repetycją	!
4B-/	.	4b-\	.	4F\	.	4f/)	.	(yy8dd\Lyy	.
.	.	.	.	.	.	.	.	8ee-\yy	.
4r	.	4r	.	4r	.	4r	.	8eeX\yy	.
.	.	.	.	.	.	.	.	8ff\J)yy	.
2r	.	2r	.	2r	.	2r	.	(yy8dd\Lyy	.
.	.	.	.	.	.	.	.	8ee-\)yy	.
.	.	.	.	.	.	.	.	8eeX\yy	.
.	.	.	.	.	.	.	.	8ff\Jyy	.
=39	=39	=39	=39	=39	=39	=39	=39	=39	=39
2r	.	2r	.	2r	.	2r	.	8dd\Lyy	.
.	.	.	.	.	.	.	.	8ee-\yy	.
.	.	.	.	.	.	.	.	8eeX\yy	.
.	.	.	.	.	.	.	.	8ff\Jyy	.
!	!LO:DY:t=fu	!	!LO:DY:t=fu	!	!LO:DY:rj	!	!LO:DY:t=fu	!	!
2f/	f	2cc\	f	2FF/	f	2e-/	f	8ff\Lyy	.
.	.	.	.	.	.	.	.	8ee-\yy	.
.	.	.	.	.	.	.	.	8cc\yy	.
.	.	.	.	.	.	.	.	8a\Jyy	.
=40	=40	=40	=40	=40	=40	=40	=40	=40	=40
4B-/	.	4a\	.	4BB-/	.	4d/	.	4b-\	p
4r	.	4r	.	4r	.	4r	.	4r	.
!	!	!	!	!	!LO:DY:t=p&colon;	!	!	!	!
2r	.	2r	.	4d\	p	2r	.	4ff\	.
.	.	.	.	4d\	.	.	.	4ff\	.
=41	=41	=41	=41	=41	=41	=41	=41	=41	=41
2r	.	2r	.	4B-\	.	2r	.	4dd\	.
.	.	.	.	4B-\	.	.	.	4dd\	.
!	!	!	!LO:DY:t=p&colon;	!	!	!	!LO:DY:t=p&colon;	!	!
2f/	p	2cc\	p	2A\	.	2f/	p	(8cc\L	.
.	.	.	.	.	.	.	.	8ff\	.
.	.	.	.	.	.	.	.	8a\	.
.	.	.	.	.	.	.	.	8cc\J)	.
=42	=42	=42	=42	=42	=42	=42	=42	=42	=42
4b-\	.	4dd\	.	4BB-/	.	4d/	.	4b-\	.
!	!	!	!	!	!	!	!	!	!LO:DY:rj:t=p&colon;
4r	.	4r	.	4r	.	4r	.	4r	p
!	!	!	!	!LO:SIC:v:s=8qc:t=?	!LO:DY:rj:t=pp&colon;	!	!	!	!
.	.	.	.	8qqc#X/	pp	.	.	8qqee-/	.
2r	.	2r	.	4d\	.	2r	.	4ff\	.
!	!	!	!	!LO:SIC:v:s=8qc:t=?	!	!	!	!	!
.	.	.	.	8qqc#/	.	.	.	8qqee-/	.
.	.	.	.	4d\	.	.	.	4ff\	.
!	!	!	!	!	!	!	!	!LO:LB:g=original	!
=43	=43	=43	=43	=43	=43	=43	=43	=43	=43
.	.	.	.	8qqA/	.	.	.	8qqcc/	.
2r	.	2r	.	4B-\	.	2r	.	4dd\	.
.	.	.	.	8qqA/	.	.	.	8qqcc/	.
.	.	.	.	4B-\	.	.	.	4dd\	.
!	!	!	!LO:DY:t=pp.	!	!	!	!LO:DY:t=pp&colon;	!	!
2f/	pp	2cc\	pp	2F\	.	(2e-/	pp	8cc\L	.
.	.	.	.	.	.	.	.	(8ee-\	.
.	.	.	.	.	.	.	.	8a\	.
.	.	.	.	.	.	.	.	8cc\J)	.
!LO:LB:g=original	!	!LO:LB:g=original	!	!	!	!	!	!	!
=44	=44	=44	=44	=44	=44	=44	=44	=44	=44
!	!LO:DY:rj:t=fu	!LO:N:vis=4.	!	!	!LO:DY:rj:t=fu	!	!	!	!LO:DY:rj:t=fu
4d/	f	4b-\	.	4BB-/	f	4d/)	.	4b-\	f
8.d/L	.	8.b-\L	.	4B-\	.	8.f/L	.	8.bb-\L	.
16d/Jk	.	16b-\Jk	.	.	.	[16f/Jk	.	16bb-\Jk	.
!	!	!	!	!	!	!	!LO:DY:rj:t=fu	!	!
4d/	.	4b-\	.	4F\	.	4f/]	f	4bb-\	.
4d/	.	4b-\	.	4D\	.	4f/	.	4bb-\	.
!	!	!	!	!	!	!LO:LB:g=original	!	!	!
=45	=45	=45	=45	=45	=45	=45	=45	=45	=45
4d/	.	4b-\	.	4BB-/	.	4f/	.	4bb-\	.
4r	.	4r	.	4r	.	4r	.	4r	.
!LO:TX:b:t=Finis.	!	!LO:TX:b:t=Finis.	!	!LO:TX:b:t=Finis.	!	!LO:TX:a:t=Finis.	!	!LO:TX:b:t=Finis.	!
2r	.	2r	.	2r	.	2r	.	2r	.
==	==	==	==	==	==	==	==	==	==
*-	*-	*-	*-	*-	*-	*-	*-	*-	*-
!!!system-decoration: s1,s2,s3,s4,s5
!!!RDF**kern: > = above
!!!RDF**kern: 06-23tępień
!!!ENC: Leszek Kubiak
!!!END: 2021-06-17
!!!EED: Leszek Kubiak
!!!EEV: 2021-06-23
!!!YEC: Copyright 2022 Narodowy Instytut Fryderyka Chopina (https://polishscores.org)
!!!YEM: License CC-BY-4.0 (https://creativecommons.org/licenses/by/4.0)
